X:731
T:Mrs. Rose
R:Reel
C:William Marshall
B:The Athole Collection
M:C|
L:1/8
K:G
G2 GB dBgB|dBgB A/A/A AB|G2GB dgba|g<f g>B G/G/G G2:|
g2 gb afge|d<B g>B A/A/A A2|g2gb afge|d<B g>B G/G/G G2|
g2 gb afge|d<B g<B A/A/A A2 gbab gaeg|d<Bg>B G/G/G G2||

